src/standard/hardware/ddr-memory.svg

<svg xmlns="http://www.w3.org/2000/svg" viewBox="0 0 36 36">
  <path d="M31 12.625a.625.625 0 0 0 0-1.25h-3.375v-1.75H31a.625.625 0 0 0 0-1.25h-3.375V5A.625.625 0 0 0 27 4.375H9A.625.625 0 0 0 8.375 5v3.375H5a.625.625 0 0 0 0 1.25h3.375v1.75H5a.625.625 0 0 0 0 1.25h3.375v1.75H5a.625.625 0 0 0 0 1.25h3.375v1.75H5a.625.625 0 0 0 0 1.25h3.375v1.75H5a.625.625 0 0 0 0 1.25h3.375v1.75H5a.625.625 0 0 0 0 1.25h3.375v1.75H5a.625.625 0 0 0 0 1.25h3.375V31a.625.625 0 0 0 .625.625h18a.625.625 0 0 0 .625-.625v-3.375H31a.625.625 0 0 0 0-1.25h-3.375v-1.75H31a.625.625 0 0 0 0-1.25h-3.375v-1.75H31a.625.625 0 0 0 0-1.25h-3.375v-1.75H31a.625.625 0 0 0 0-1.25h-3.375v-1.75H31a.625.625 0 0 0 0-1.25h-3.375v-1.75Zm-4.625 17.75H9.625V5.625h16.75v24.75Z"/>
  <path d="M23 8.375H13a.625.625 0 0 0-.625.625v18a.625.625 0 0 0 .625.625h10a.625.625 0 0 0 .625-.625V9A.625.625 0 0 0 23 8.375Zm-.625 18h-8.75V9.625h8.75Z"/>
</svg>

<svg id="f48a7b70-245f-4cef-a720-3f68497f6d78" data-name="Layer 1" xmlns="http://www.w3.org/2000/svg" viewBox="0 0 36 36">
  <g>
    <path d="M31,12.625a.625.625,0,0,0,0-1.25H27.625V9.625H31a.625.625,0,0,0,0-1.25H27.625V5A.625.625,0,0,0,27,4.375H9A.625.625,0,0,0,8.375,5V8.375H5a.625.625,0,0,0,0,1.25H8.375v1.75H5a.625.625,0,0,0,0,1.25H8.375v1.75H5a.625.625,0,0,0,0,1.25H8.375v1.75H5a.625.625,0,0,0,0,1.25H8.375v1.75H5a.625.625,0,0,0,0,1.25H8.375v1.75H5a.625.625,0,0,0,0,1.25H8.375v1.75H5a.625.625,0,0,0,0,1.25H8.375V31A.625.625,0,0,0,9,31.625H27A.625.625,0,0,0,27.625,31V27.625H31a.625.625,0,0,0,0-1.25H27.625v-1.75H31a.625.625,0,0,0,0-1.25H27.625v-1.75H31a.625.625,0,0,0,0-1.25H27.625v-1.75H31a.625.625,0,0,0,0-1.25H27.625v-1.75H31a.625.625,0,0,0,0-1.25H27.625v-1.75Zm-4.625,17.75H9.625V5.625h16.75v24.75Z"/>
    <path d="M23,8.375H13A.625.625,0,0,0,12.375,9V27a.625.625,0,0,0,.625.625H23A.625.625,0,0,0,23.625,27V9A.625.625,0,0,0,23,8.375Zm-.625,18h-8.75V9.625h8.75Z"/>
  </g>
</svg>
